!!!OTL: Krauserlin, Mauserlin.
!!!ARE: Europa, Mitteleuropa, Deutschland
!!!SCT: A0197A
!!!TXL: @@GMH
!!!YEM: Copyright 1995, estate of Helmut Schaffrath.
**kern	**text
*M4/2	*
*met(c|)	*
*clefC3	*
*k[]	*
*G:mix	*
=1	=1
!LO:TX:a:t=mixolyd.	!
1ryy	.
2ryy	.
{2G	Jch
=2	=2
1G	weyß
1G	ein
=3	=3
1A	feins
1B	brauns
=4	=4
1.c	mey-
2c	-de-
=5	=5
1c	-lein,
2r}	.
{2c	hat
=6	=6
2c/	mir
2c/	mein
2A	hertʒ
2A	be-
=7	=7
*lig	*
1.d	-ſeſ-
2c	.
=8	=8
2B/	.
2c/	.
1A	.
*Xlig	*
=9	=9
1G	-ſen.
2r}	.
{2G	Es
=10	=10
1G	kan
1G	mir
=11	=11
1A	ein
1B	krauſerlin
=12	=12
1.c	mauſerlin
2c	.
=13	=13
1c	ſein,
2r}	.
{2c	ich
=14	=14
2c/	kan
2c/	ir
2A	nit
2A	ver-
=15	=15
*lig	*
1.d	-geſ-
2c	.
=16	=16
2B/	.
2c/	.
1A	.
*Xlig	*
=17	=17
1G	-ſen.
2r}	.
{2B	Sie
=18	=18
1c	gfelt
1c	mir
=19	=19
1B	auß
1e	der
=20	=20
*lig	*
2.d	maſ-
4c	.
*Xlig	*
1d	-ſen
=21	=21
1c	wol,
2r}	.
{2c	Jr
=22	=22
2c	weiß
2c	vnd
2A	berd,
2B	iſt
=23	=23
2c	gol-
2c	-des
2A}	wert,
{2B	es
=24	=24
2c	ſtet
2d	jr
2e	wol
2c	an
=25	=25
1.d	was
2c	ſie
=26	=26
2B	thun-
4A	.
4G	.
1A	.
=27	=27
0G/ll}	-ſoll.
==	==
!!!GTL: Liebeslieder
!!!AGN: Romanze, Ballade, Lied
!! Gassenhawerlin 1535 No. 12. Tonsatz von Heinrich Finck.
!!!ONB: ESAC (Essen Associative Code) Database: ALTDEU
!!!AMT: simple quadruple
!!!AIN: vox
!!!EED: Helmut Schaffrath
!!!EEV: 1.0
!!!RDF**kern: l = terminal long
!!!AMD: Mixolydian
!!!URL-scan: https://rosdok.uni-rostock.de/mcrviewer/recordIdentifier/rosdok_ppn738218359/iview2/phys_0353.iview2?x=-495.6391625615763&y=113.18797599570826&scale=0.4629418472063854&rotation=0&layout=singlePageLayout&logicalDiv=log_0009
!!!ENC: Anna Maria Matuszewska
!!!EEV: 2024/07/03
*-	*-
